X:1355
T:Believe me if all those endearing young charms
R:Waltz
O:England
M:3/4
K:D
FE|\
D3E D2| D2F2A2| G2B2d2| d4 cB| \
A3G F2| E3D E2| F3G F2| E4 FE| \
D3E D2| D2F2A2| G2B2d2| d4 cB|
Ad3 F2| E3D E2| (D6 | D2) z2|| \
AG|\
F2A2 d2| d4 A2| B2G2d2| d4 cB|
A3GF2 | E3DE2| F3GF2| E4 FE|\
D3ED2| D2F2A2| G2B2d2| d4 cB|\
Ad3 F2| E3DE2| (D6 |D2) z2 |]


